X:1
T:Novato, 87.87 D
T:Novato, 87.87 D
T:Asa Hull, 1888
T:Public Domain Courtesy of the Cyber Hymnal™
C:Asa Hull, 1888
Z:Public Domain
Z:Courtesy of the Cyber Hymnal™
%%score ( 1 2 ) ( 3 4 )
L:1/8
Q:1/4=88
M:3/4
K:G
V:1 treble 
V:2 treble 
V:3 bass 
V:4 bass 
V:1
 [DG]>[DA] | [GB]3 [G^A] [GB][GA] | [GB] !>![Gd]3 G>[GA] | [GB]3 [GB] (3(dc)[GB] | %4
 [FA]4 [DG]>[DA] | [GB]3 [G^A] [GB][GA] | [GB] [Gd]3 G[GA] | [GB] !>![Gd]3 [FA]>[FB] | %8
 [DG]4 [Ec]>[Ec] | [Ec]3 [Ec] [DB][FA] | [GB] !>![Gd]3 [Gd]>[GB] | [FA]3 [FA] (3(^cB)[Gc] x3/4 | %12
 [Fd]4 [Bd]>[Ac] | [GB]3 [Gd] [Fc][GB] | ([EA][CE]) !fermata![EA]2 [DG][DF] | %15
 [CE][B,D] [GB]3 [FA] | [DG]4 |] %17
V:2
 x2 | x6 | x4 G3/2 x/ | x4 A2 | x6 | x6 | x4 G x | x6 | x6 | x6 | x6 | x4 G2 x3/4 | x6 | x6 | x6 | %15
 x6 | x4 |] %17
V:3
 [G,B,]>[G,C] | [G,D]3 [G,^C] [G,D][G,C] | [G,D] !>![G,B,]3 [G,B,]>[G,C] | %3
 [G,D]3 [G,D] (3:2:2[G,D]2 [G,D] | [D,D]4 [G,B,]>[G,C] | [G,D]3 [G,^C] [G,D][G,C] | %6
 [G,D] [G,B,]3 [B,,D][C,E] | [D,D] !>![D,B,]3 [D,C]>[D,D] | [G,,G,B,]4 [C,G,]>[C,G,] | %9
 [C,G,]3 [C,G,] G,[D,D] | [G,D] !>![G,B,]3 [G,B,]>[G,D] | [A,D]3 [A,D] A,2 (3:2:1[A,,A,] x/12 | %12
 [D,A,]4 [D,D]>[D,D] | [G,D]3 [B,D] [A,D][G,D] | (CG,) !fermata![C,C]2 [D,B,][D,A,] | %15
 [D,F,][D,G,] [D,D]3 [D,C] | [G,,G,B,]4 |] %17
V:4
 x2 | x6 | x6 | x6 | x6 | x6 | x6 | x6 | x6 | x4 G, x | x6 | x4 (3:2:1A,2 x17/12 | x6 | x6 | %14
 C,2 x4 | x6 | x4 |] %17

